X: 5782
T: Caisleán An Óir
R: hornpipe
M: 4/4
K: Edorian
B,EED E2FA|BAB(d d2)ef|edBA FBAF|(EEE)F D>B,B,A,|
B,EED E2FA|BABc d2ef|edBA FBAF|E2ED E2 B,/A,/B,||
B,EED E2FA|BABc d2ef|edBA FBAF|(EEE)F D>B,B,A,|
B,EED E2FA|BABc d2ef|edBA FBAF|E2ED E2FA||
Beef g2fe|edBc d2ef|edBA FBAF|(EEE)>F D>B,B,A,|
B,EED E2FA|BABc d2ef|edBA FBAF|{D}E2ED E2FA||
Beef g2fe|edBc d2ef|edBA FBAF|(EEE)>F D>B,B,A,|
B,EED E2FA|BABc d2ef|edBA FBAF|{D}Ez EE E4||

